trunk/WorldWind/resources/milstd2525/icons/ems/ehfab----------.svg

<?xml version="1.0" encoding="UTF-8" standalone="no"?>
<!--
Copyright (C) 2012 United States Government as represented by the Administrator of the
National Aeronautics and Space Administration.
All Rights Reserved.
-->

<!--
MIL-STD-2525 tactical symbol icon image. During icon composition this image is multiplied by the desired frame color 
(e.g. black), then drawn on top of the frame and fill.
-->

<svg
   xmlns:dc="http://purl.org/dc/elements/1.1/"
   xmlns:cc="http://creativecommons.org/ns#"
   xmlns:rdf="http://www.w3.org/1999/02/22-rdf-syntax-ns#"
   xmlns:svg="http://www.w3.org/2000/svg"
   xmlns="http://www.w3.org/2000/svg"
   xmlns:sodipodi="http://sodipodi.sourceforge.net/DTD/sodipodi-0.dtd"
   xmlns:inkscape="http://www.inkscape.org/namespaces/inkscape"
   height="400px"
   viewBox="0 0 400 400"
   width="400px"
   id="svg2"
   version="1.1"
   inkscape:version="0.48.2 r9819"
   sodipodi:docname="ehfab----------.svg">
  <metadata
     id="metadata16">
    <rdf:RDF>
      <cc:Work
         rdf:about="">
        <dc:format>image/svg+xml</dc:format>
        <dc:type
           rdf:resource="http://purl.org/dc/dcmitype/StillImage" />
      </cc:Work>
    </rdf:RDF>
  </metadata>
  <defs
     id="defs14" />
  <sodipodi:namedview
     pagecolor="#ffffff"
     bordercolor="#666666"
     borderopacity="1"
     objecttolerance="10"
     gridtolerance="10"
     guidetolerance="10"
     inkscape:pageopacity="0"
     inkscape:pageshadow="2"
     inkscape:window-width="640"
     inkscape:window-height="472"
     id="namedview12"
     showgrid="false"
     inkscape:zoom="0.59"
     inkscape:cx="200"
     inkscape:cy="200"
     inkscape:window-x="122"
     inkscape:window-y="49"
     inkscape:window-maximized="0"
     inkscape:current-layer="svg2" />
  <g
     transform="matrix(100,0,0,100,71,80)"
     id="g4"
     style="stroke:#000000;stroke-width:0.06;stroke-miterlimit:4;stroke-opacity:1;stroke-dasharray:0.12, 0.06;stroke-dashoffset:0">
    <path
       inkscape:connector-curvature="0"
       d="m 0.319697,1.1213 -0.056465,4.1e-4 -0.014318,0.05107 0.06435,0 0,0.05469 -0.050032,4.1e-4 -0.014318,0.05107 0.06435,0 c 0.011102,0.04767 0.01352,0.0973 0.025693,0.14483 0.011748,0.04589 0.032547,0.08274 0.052575,0.12117 0.032212,0.06179 0.120909,0.12974 0.214516,0.12974 l 0.035393,0 c 0.06426,0 0.133866,-0.03043 0.166575,-0.06185 C 0.835134,1.58678 0.899662,1.51952 0.908146,1.48217 L 0.892398,1.472 C 0.878453,1.48134 0.832961,1.54491 0.809603,1.56616 0.786268,1.58739 0.726186,1.61678 0.683268,1.61678 l -0.045047,0 c -0.128488,0 -0.19626,-0.19923 -0.19626,-0.33783 l 0.337827,0 c 0.012126,0 0.019834,-0.03993 0.022523,-0.05148 l -0.36035,0 0,-0.05469 0.370004,0 c 0.013941,0 0.017536,-0.04109 0.02252,-0.05148 l -0.389307,0 C 0.447808,1.11582 0.462658,1.02678 0.466359,1.01056 0.473993,0.977115 0.489718,0.939005 0.503088,0.912162 0.528221,0.861698 0.583316,0.796339 0.657529,0.796339 l 0.038606,0 c 0.102213,0 0.170528,0.101898 0.170528,0.205911 l 0.025736,0 0,-0.186608 c 0,-0.021996 -0.152138,-0.06113 -0.193043,-0.06113 l -0.05148,0 c -0.097268,0 -0.184559,0.063666 -0.227567,0.119917 C 0.382238,0.924225 0.321529,1.03911 0.319699,1.1213 z"
       style="fill:#ffffff;stroke:#000000;stroke-width:0.06;stroke-miterlimit:4;stroke-opacity:1;stroke-dasharray:0.12, 0.06;stroke-dashoffset:0"
       id="path6" />
    <path
       inkscape:connector-curvature="0"
       d="m 1.68389,1.57495 c 0,-0.02557 0.02442,-0.04504 0.05148,-0.04504 l 0.01609,0 c 0.02273,0 0.03007,0.01185 0.04826,0.01608 C 1.79007,1.58739 1.7738,1.63608 1.7225,1.63608 l -0.00322,0 c -0.01806,0 -0.03539,-0.02127 -0.03539,-0.03861 z M 1.89624,0.937903 c 0,-0.067744 0.03815,-0.144783 0.10296,-0.144783 l 0.02252,0 c 0.11004,0 0.04623,0.144783 0.11583,0.144783 l 0.01287,0 c 0.02208,0 0.04504,-0.026799 0.04504,-0.05148 l 0,-0.009654 c 0,-0.059386 -0.07774,-0.12226 -0.14157,-0.12226 l -0.02895,0 c -0.14668,0 -0.23488,0.130209 -0.23488,0.279911 l 0,0.06114 -0.12226,0 0,0.06434 0.12548,0 0.00651,0.06113 -0.13199,0 0,0.06435 0.13513,0 L 1.81044,1.41081 1.80937,1.49452 1.77407,1.49057 1.7418,1.4913 c -0.04954,0 -0.09652,0.04385 -0.09652,0.0933 0,0.04979 0.02511,0.09009 0.074,0.09009 l 0.01287,0 c 0.04504,0 0.10092,-0.06657 0.10939,-0.10296 0.0098,0.00262 0.07285,0.05186 0.08878,0.06244 0.02674,0.01777 0.06832,0.04052 0.1107,0.04052 l 0.0354,0 c 0.08644,0 0.1673,-0.12424 0.1673,-0.21557 C 2.2305,1.45802 2.23654,1.45591 2.22442,1.45591 c -0.00768,0 -0.02406,0.10295 -0.12548,0.10295 l -0.03218,0 C 2.02791,1.55886 1.89793,1.52054 1.8705,1.50739 1.88435,1.44794 1.90911,1.39114 1.90911,1.31756 l 0,-0.03218 0.17052,0 0,-0.06435 -0.17052,0 0,-0.02573 -0.00367,-0.03534 0.17419,-6e-5 0,-0.06434 -0.17696,0 L 1.89496,0.960493 1.89624,0.937902 z"
       style="fill:#ffffff;stroke:#000000;stroke-width:0.06;stroke-miterlimit:4;stroke-opacity:1;stroke-dasharray:0.12, 0.06;stroke-dashoffset:0"
       id="path8" />
    <path
       inkscape:connector-curvature="0"
       d="M 1.28171,1.28217 C 1.29432,1.28554 1.36527,1.34201 1.3775,1.35369 1.4099,1.38461 1.42615,1.40593 1.43377,1.46175 1.44501,1.54417 1.36329,1.63105 1.28171,1.63287 z M 1.23988,1.10521 C 1.1924,1.08009 1.11603,1.01342 1.11122,0.947512 1.10492,0.861158 1.15386,0.799555 1.23988,0.799555 z M 1.28171,0.796339 c 0.01802,0.00865 0.05575,0.008118 0.08106,0.021898 0.02167,0.011807 0.04361,0.023578 0.05731,0.042425 0.04304,0.059181 0.03343,0.07063 0.05146,0.148028 l 0.02574,0 0,-0.189831 c 0,-0.023362 -0.17148,-0.06113 -0.21557,-0.06113 l 0,-0.067567 -0.04183,0 0,0.067567 c -0.11591,0 -0.23165,0.090941 -0.23165,0.209134 l 0,0.019303 C 1.00823,1.05461 1.05556,1.11721 1.0945,1.14764 1.12073,1.16813 1.21192,1.24253 1.23988,1.25 l 0,0.38287 C 1.18227,1.63287 1.12025,1.60514 1.09097,1.57586 1.07527,1.56015 1.06029,1.5353 1.05127,1.51261 1.04634,1.50021 1.0406,1.43661 1.02753,1.43661 l -0.02252,0 0,0.18982 C 1.0216,1.62782 1.08362,1.6525 1.11052,1.65927 1.14155,1.66708 1.19074,1.67469 1.23023,1.67469 l 0.00965,0 0,0.08044 0.04183,0 0,-0.08044 c 0.13424,0 0.2574,-0.10452 0.2574,-0.2413 0,-0.08587 -0.05022,-0.14243 -0.09915,-0.18078 C 1.38701,1.21111 1.33809,1.17192 1.28171,1.13417 l 0,-0.337832 z"
       style="fill:#ffffff;stroke:#000000;stroke-width:0.06;stroke-miterlimit:4;stroke-opacity:1;stroke-dasharray:0.12, 0.06;stroke-dashoffset:0"
       id="path10" />
  </g>
</svg>

<?xml version="1.0"?>
<!--
Copyright (C) 2012 United States Government as represented by the Administrator of the
National Aeronautics and Space Administration.
All Rights Reserved.
-->

<!DOCTYPE svg PUBLIC "-//W3C//DTD SVG 1.1//EN" "http://www.w3.org/Graphics/SVG/1.1/DTD/svg11.dtd" >
<!--
MIL-STD-2525 tactical symbol icon image. During icon composition this image is multiplied by the desired frame color 
(e.g. black), then drawn on top of the frame and fill.
-->
<svg xmlns:xlink="http://www.w3.org/1999/xlink" height="400px" viewBox="0 0 400 400" width="400px"><g transform="scale(100) translate(0.71 0.8)"><path d="M0.319697 1.1213 L0.263232 1.12171 L0.248914 1.17278 L0.313264 1.17278 L0.313264     1.22747 L0.263232 1.22788 L0.248914 1.27895 L0.313264 1.27895 C0.324366 1.32662     0.326784 1.37625 0.338957 1.42378 C0.350705 1.46967 0.371504 1.50652 0.391532     1.54495 C0.423744 1.60674 0.512441 1.67469 0.606048 1.67469 L0.641441     1.67469 C0.705701 1.67469 0.775307 1.64426 0.808016 1.61284 C0.835134 1.58678     0.899662 1.51952 0.908146 1.48217 L0.892398 1.472 C0.878453 1.48134 0.832961     1.54491 0.809603 1.56616 C0.786268 1.58739 0.726186 1.61678 0.683268 1.61678     L0.638221 1.61678 C0.509733 1.61678 0.441961 1.41755 0.441961 1.27895 L0.779788     1.27895 C0.791914 1.27895 0.799622 1.23902 0.802311 1.22747 L0.441961     1.22747 L0.441961 1.17278 L0.811965 1.17278 C0.825906 1.17278 0.829501 1.13169     0.834485 1.1213 L0.445178 1.1213 C0.447808 1.11582 0.462658 1.02678 0.466359     1.01056 C0.473993 0.977115 0.489718 0.939005 0.503088 0.912162 C0.528221     0.861698 0.583316 0.796339 0.657529 0.796339 L0.696135 0.796339 C0.798348     0.796339 0.866663 0.898237 0.866663 1.00225 L0.892399 1.00225 L0.892399 0.815642     C0.892399 0.793646 0.740261 0.754512 0.699356 0.754512 L0.647876 0.754512     C0.550608 0.754512 0.463317 0.818178 0.420309 0.874429 C0.382238 0.924225     0.321529 1.03911 0.319699 1.1213 z" style="fill:rgb(255,255,255)"/><path d="M1.68389 1.57495 C1.68389 1.54938 1.70831 1.52991 1.73537 1.52991 L1.75146 1.52991     C1.77419 1.52991 1.78153 1.54176 1.79972 1.54599 C1.79007 1.58739 1.7738 1.63608     1.7225 1.63608 L1.71928 1.63608 C1.70122 1.63608 1.68389 1.61481 1.68389     1.59747 zM1.89624 0.937903 C1.89624 0.870159 1.93439 0.79312 1.9992 0.79312     L2.02172 0.79312 C2.13176 0.79312 2.06795 0.937903 2.13755 0.937903 L2.15042     0.937903 C2.1725 0.937903 2.19546 0.911104 2.19546 0.886423 L2.19546 0.876769     C2.19546 0.817383 2.11772 0.754509 2.05389 0.754509 L2.02494 0.754509     C1.87826 0.754509 1.79006 0.884718 1.79006 1.03442 L1.79006 1.09556 L1.6678     1.09556 L1.6678 1.1599 L1.79328 1.1599 L1.79979 1.22103 L1.6678 1.22103 L1.6678     1.28538 L1.80293 1.28538 L1.81044 1.41081 L1.80937 1.49452 L1.77407 1.49057     L1.7418 1.4913 C1.69226 1.4913 1.64528 1.53515 1.64528 1.5846 C1.64528     1.63439 1.67039 1.67469 1.71928 1.67469 L1.73215 1.67469 C1.77719 1.67469 1.83307     1.60812 1.84154 1.57173 C1.85134 1.57435 1.91439 1.62359 1.93032 1.63417     C1.95706 1.65194 1.99864 1.67469 2.04102 1.67469 L2.07642 1.67469 C2.16286     1.67469 2.24372 1.55045 2.24372 1.45912 C2.2305 1.45802 2.23654 1.45591 2.22442     1.45591 C2.21674 1.45591 2.20036 1.55886 2.09894 1.55886 L2.06676 1.55886     C2.02791 1.55886 1.89793 1.52054 1.8705 1.50739 C1.88435 1.44794 1.90911     1.39114 1.90911 1.31756 L1.90911 1.28538 L2.07963 1.28538 L2.07963 1.22103     L1.90911 1.22103 L1.90911 1.1953 L1.90544 1.15996 L2.07963 1.1599 L2.07963 1.09556     L1.90267 1.09556 L1.89496 0.960493 L1.89624 0.937902 z" style="fill:rgb(255,255,255)"/><path d="M1.28171 1.28217 C1.29432 1.28554 1.36527 1.34201 1.3775 1.35369 C1.4099 1.38461     1.42615 1.40593 1.43377 1.46175 C1.44501 1.54417 1.36329 1.63105 1.28171 1.63287     zM1.23988 1.10521 C1.1924 1.08009 1.11603 1.01342 1.11122 0.947512 C1.10492     0.861158 1.15386 0.799555 1.23988 0.799555 zM1.28171 0.796339 C1.29973     0.804989 1.33746 0.804457 1.36277 0.818237 C1.38444 0.830044 1.40638 0.841815     1.42008 0.860662 C1.46312 0.919843 1.45351 0.931292 1.47154 1.00869 L1.49728     1.00869 L1.49728 0.818859 C1.49728 0.795497 1.3258 0.757729 1.28171 0.757729     L1.28171 0.690162 L1.23988 0.690162 L1.23988 0.757729 C1.12397 0.757729     1.00823 0.84867 1.00823 0.966863 L1.00823 0.986166 C1.00823 1.05461 1.05556     1.11721 1.0945 1.14764 C1.12073 1.16813 1.21192 1.24253 1.23988 1.25 L1.23988     1.63287 C1.18227 1.63287 1.12025 1.60514 1.09097 1.57586 C1.07527 1.56015     1.06029 1.5353 1.05127 1.51261 C1.04634 1.50021 1.0406 1.43661 1.02753 1.43661     L1.00501 1.43661 L1.00501 1.62643 C1.0216 1.62782 1.08362 1.6525 1.11052     1.65927 C1.14155 1.66708 1.19074 1.67469 1.23023 1.67469 L1.23988 1.67469 L1.23988     1.75513 L1.28171 1.75513 L1.28171 1.67469 C1.41595 1.67469 1.53911 1.57017     1.53911 1.43339 C1.53911 1.34752 1.48889 1.29096 1.43996 1.25261 C1.38701     1.21111 1.33809 1.17192 1.28171 1.13417 L1.28171 0.796338 z" style="fill:rgb(255,255,255)"/></g></svg>
